src/assets/img/founders/digitalocean-hero.svg

<svg width="188" height="32" viewBox="0 0 188 32" fill="none" xmlns="http://www.w3.org/2000/svg">
<path d="M16.0219 25.8036V32C26.4874 32 34.6316 21.8881 31.2065 10.902C29.6842 6.11214 25.8785 2.27268 21.0834 0.790112C10.1231 -2.63119 0 5.54192 0 15.9959H6.20324C6.20324 9.45741 12.7109 4.36347 19.6372 6.87243C22.187 7.78478 24.2421 9.83756 25.1555 12.3845C27.6672 19.3032 22.6057 25.8036 16.0219 25.8036Z" fill="white"/>
<path d="M9.85547 25.8419H16.0206V19.6836H9.85547V25.8419Z" fill="white"/>
<path d="M9.85474 30.5956H5.09766V25.8441L9.85474 25.8438V30.5956Z" fill="white"/>
<path d="M1.10547 25.8441H5.06336V21.8906H1.10547V25.8441Z" fill="white"/>
<path fill-rule="evenodd" clip-rule="evenodd" d="M56.4301 9.27472C54.6221 8.03895 52.3621 7.40234 49.7254 7.40234H44V25.5269H49.7254C52.3621 25.5269 54.6221 24.8529 56.4301 23.5422C57.4094 22.8307 58.2004 21.8571 58.7278 20.6213C59.2551 19.3855 59.5564 17.9625 59.5564 16.3523C59.5564 14.742 59.2928 13.319 58.7278 12.1207C58.2004 10.885 57.4471 9.91132 56.4301 9.27472ZM47.3931 10.4375H49.1635C51.1598 10.4375 52.8172 10.812 54.0602 11.5984C55.4539 12.4222 56.1695 14.0325 56.1695 16.3167C56.1695 18.6759 55.4539 20.3236 54.0602 21.2224C52.8548 22.0088 51.2352 22.4207 49.2011 22.4207H47.3931V10.4375Z" fill="white"/>
<path d="M62.1925 7.70234C62.5692 7.32786 63.0212 7.14062 63.5862 7.14062C64.1135 7.14062 64.6032 7.36531 65.0175 7.70234C65.3942 8.07681 65.5825 8.52618 65.5825 9.08789C65.5825 9.6496 65.3942 10.1364 65.0175 10.5109C64.6032 10.8854 64.1512 11.0726 63.5862 11.0726C63.0212 11.0726 62.5315 10.8854 62.1548 10.5109C61.7782 10.099 61.5898 9.6496 61.5898 9.08789C61.5898 8.52618 61.8158 8.07681 62.1925 7.70234Z" fill="white"/>
<path d="M61.9296 12.7187H65.169V25.4882H61.9296V12.7187Z" fill="white"/>
<path fill-rule="evenodd" clip-rule="evenodd" d="M73.6397 12.457C74.8074 12.457 75.8997 12.9438 76.8791 13.8051V12.7192H80.0431V24.3279C80.0431 26.2377 79.4404 27.8105 78.3104 28.9714C77.1804 30.1322 75.6361 30.7314 73.715 30.7314C72.3214 30.7314 71.0784 30.3944 70.1367 29.7952C69.195 29.196 68.4793 28.5594 67.9897 27.8854L67.9143 27.8105L70.099 25.7134C71.2667 27.2113 72.1707 27.8105 73.6774 27.8105C74.619 27.8105 75.41 27.5109 75.9751 26.9492C76.5024 26.3875 76.8037 25.5636 76.8037 24.5151V24.2155C75.8997 24.8896 74.845 25.2266 73.602 25.2266C71.8317 25.2266 70.325 24.6275 69.195 23.4291C68.065 22.1934 67.5 20.658 67.5 18.8605C67.5 17.0256 68.065 15.4903 69.2327 14.292C70.3627 13.0562 71.8694 12.457 73.6397 12.457ZM73.7907 22.2692C74.7324 22.2692 75.448 21.9697 76.013 21.333C76.578 20.6964 76.8794 19.8726 76.8417 18.8241C76.8417 17.813 76.578 16.9517 76.013 16.3151C75.448 15.6785 74.7324 15.3789 73.7907 15.3789C72.8867 15.3789 72.171 15.6785 71.606 16.3151C71.041 16.9517 70.7773 17.7755 70.7773 18.8241C70.7773 19.8726 71.041 20.6964 71.606 21.333C72.1334 21.9697 72.849 22.2692 73.7907 22.2692Z" fill="white"/>
<path d="M82.7969 12.7188H86.0362V25.4883H82.7969V12.7188Z" fill="white"/>
<path d="M83.0597 7.70234C83.4364 7.32786 83.8884 7.14062 84.4534 7.14062C85.0184 7.14062 85.4704 7.36531 85.8847 7.70234C86.2614 8.07681 86.4497 8.52618 86.4497 9.08789C86.4497 9.6496 86.2614 10.1364 85.8847 10.5109C85.4704 10.8854 85.0184 11.0726 84.4534 11.0726C83.8884 11.0726 83.3987 10.8854 83.022 10.5109C82.6454 10.099 82.457 9.6496 82.457 9.08789C82.457 8.52618 82.683 8.07681 83.0597 7.70234Z" fill="white"/>
<path d="M93.1152 9.27344H89.9511V12.7186H88.1055V15.6395H89.9511V20.9196C89.9511 22.5673 90.2902 23.7656 90.9305 24.4397C91.6085 25.1137 92.7762 25.4882 94.3958 25.4882C94.9232 25.4882 95.4505 25.4882 95.9779 25.4507H96.1285V22.5298L95.0362 22.6047C94.2828 22.6047 93.7555 22.4549 93.4918 22.1928C93.2282 21.9307 93.1152 21.369 93.1152 20.5077V15.677H96.1285V12.7561H93.1152V9.27344Z" fill="white"/>
<path d="M114.513 7.36328H111.273V25.4878H114.513V7.36328Z" fill="white"/>
<path d="M147.093 20.9202C146.528 21.5568 145.926 22.1185 145.474 22.4181C145.022 22.7176 144.457 22.83 143.816 22.83C142.875 22.83 142.083 22.4929 141.481 21.7814C140.878 21.0699 140.539 20.1712 140.539 19.0852C140.539 17.9993 140.84 17.1005 141.443 16.389C142.046 15.6775 142.837 15.3405 143.779 15.3405C144.833 15.3405 145.926 15.9771 146.867 17.1005L149.014 15.0784C147.621 13.2809 145.85 12.457 143.741 12.457C141.971 12.457 140.426 13.0936 139.183 14.3669C137.94 15.6401 137.3 17.2129 137.3 19.1227C137.3 21.0325 137.94 22.6427 139.183 23.8785C140.426 25.1517 141.971 25.7883 143.741 25.7883C146.076 25.7883 147.96 24.7772 149.24 22.9423L147.093 20.9202Z" fill="white"/>
<path fill-rule="evenodd" clip-rule="evenodd" d="M158.507 12.9836C159.26 13.3581 159.901 13.8823 160.353 14.5189C160.805 15.1555 161.144 15.8296 161.445 16.616C161.671 17.3649 161.784 18.1513 161.784 18.9752L161.746 20.136H153.196C153.271 20.9599 153.573 21.5965 154.1 22.0833C154.665 22.6076 155.381 22.8697 156.285 22.8697C156.887 22.8697 157.415 22.7199 157.904 22.4952C158.243 22.3454 158.545 22.1208 158.846 21.8212C158.959 21.6903 159.091 21.5594 159.218 21.4331C159.345 21.3068 159.468 21.1845 159.562 21.0722L161.671 23.0944L161.596 23.1693C160.24 24.8919 158.469 25.7532 156.285 25.7532C154.364 25.7532 152.782 25.1166 151.614 23.9182C150.446 22.6825 149.844 21.1097 149.844 19.1624C149.844 17.29 150.371 15.6798 151.463 14.3691C152.556 13.0959 154.025 12.4219 155.833 12.4219C156.85 12.4219 157.754 12.6091 158.507 12.9836ZM154.137 16.0155C153.761 16.39 153.459 16.9143 153.309 17.5134V17.5509H158.281C158.243 16.9517 158.017 16.4649 157.64 16.053C157.226 15.6036 156.623 15.3789 155.832 15.3789C155.154 15.3789 154.589 15.6036 154.137 16.0155Z" fill="white"/>
<path fill-rule="evenodd" clip-rule="evenodd" d="M172.747 13.6928C171.768 12.869 170.412 12.457 168.717 12.457C167.625 12.457 166.645 12.6817 165.741 13.1311C164.913 13.543 164.084 14.2545 163.557 15.1907L163.594 15.2281L165.666 17.2129C166.532 15.8647 167.474 15.3779 168.717 15.3779C169.395 15.3779 169.96 15.5652 170.374 15.9022C170.789 16.2392 171.015 16.6886 171.015 17.2878V17.9244C170.224 17.6997 169.433 17.5499 168.642 17.5499C167.022 17.5499 165.741 17.9244 164.762 18.6733C163.783 19.4223 163.293 20.5082 163.293 21.8563C163.293 23.0547 163.707 24.0283 164.536 24.7398C165.365 25.4513 166.419 25.7883 167.662 25.7883C168.905 25.7883 170.035 25.3015 171.09 24.4402V25.4887H174.254V17.2878C174.216 15.715 173.727 14.5166 172.747 13.6928ZM167.02 20.6206C167.396 20.3584 167.886 20.2461 168.564 20.2461C169.355 20.2461 170.184 20.3959 171.012 20.6955V21.9312C170.297 22.5678 169.355 22.9049 168.225 22.9049C167.66 22.9049 167.246 22.7925 166.944 22.5304C166.643 22.3057 166.492 22.0061 166.492 21.5942C166.492 21.1823 166.643 20.8453 167.02 20.6206Z" fill="white"/>
<path d="M182.878 12.418C184.497 12.418 185.74 12.9048 186.644 13.9159C187.548 14.9269 188 16.3125 188 18.0725V25.4497H184.761V18.0725C184.761 17.2112 184.573 16.5372 184.158 16.0504C183.744 15.5636 183.179 15.3389 182.463 15.3389C181.635 15.3389 180.994 15.601 180.542 16.1627C180.09 16.7244 179.864 17.4734 179.864 18.447V25.4871H176.625V12.7175H179.789V13.5039C180.542 12.7924 181.597 12.418 182.878 12.418Z" fill="white"/>
<path fill-rule="evenodd" clip-rule="evenodd" d="M107.208 13.6928C106.229 12.869 104.873 12.457 103.178 12.457C102.086 12.457 101.106 12.6817 100.202 13.1311C99.3736 13.543 98.5449 14.2545 98.0176 15.1907L98.0552 15.2281L100.127 17.2129C100.993 15.8647 101.935 15.3779 103.178 15.3779C103.856 15.3779 104.421 15.5652 104.835 15.9022C105.25 16.2392 105.476 16.6886 105.476 17.2878V17.9244C104.685 17.6997 103.894 17.5499 103.103 17.5499C101.483 17.5499 100.202 17.9244 99.2229 18.6733C98.2436 19.4223 97.7539 20.5082 97.7539 21.8563C97.7539 23.0547 98.1682 24.0283 98.9969 24.7398C99.8256 25.4513 100.88 25.7883 102.123 25.7883C103.366 25.7883 104.496 25.3015 105.551 24.4402V25.4887H108.715V17.2878C108.677 15.715 108.188 14.5166 107.208 13.6928ZM101.48 20.6206C101.857 20.3584 102.347 20.2461 103.025 20.2461C103.816 20.2461 104.644 20.3959 105.473 20.6955V21.9312C104.757 22.5678 103.816 22.9049 102.686 22.9049C102.121 22.9049 101.706 22.7925 101.405 22.5304C101.104 22.3057 100.953 22.0061 100.953 21.5942C100.953 21.1823 101.104 20.8453 101.48 20.6206Z" fill="white"/>
<path fill-rule="evenodd" clip-rule="evenodd" d="M116.81 16.426C116.81 21.5563 121.028 25.7504 126.189 25.7504C131.387 25.7504 135.568 21.5563 135.568 16.426C135.568 11.2957 131.349 7.10156 126.189 7.10156C121.028 7.10156 116.81 11.2957 116.81 16.426ZM120.122 16.3884C120.122 13.0556 122.834 10.3594 126.186 10.3594C129.539 10.3594 132.251 13.0556 132.251 16.3884C132.251 19.7212 129.539 22.4175 126.186 22.4175C122.834 22.4175 120.122 19.7212 120.122 16.3884Z" fill="white"/>
</svg>

<svg xmlns="http://www.w3.org/2000/svg" width="188" height="32" fill="none"><path fill="#fff" d="M16.022 25.804V32c10.465 0 18.61-10.112 15.185-21.098-1.523-4.79-5.329-8.63-10.124-10.112C10.123-2.63 0 5.542 0 15.996h6.203c0-6.539 6.508-11.633 13.434-9.124a9.2 9.2 0 0 1 5.518 5.512c2.512 6.92-2.55 13.42-9.133 13.42"/><path fill="#fff" d="M9.855 25.842h6.166v-6.158H9.855zM9.855 30.596H5.098v-4.752h4.757zM1.105 25.844h3.958v-3.953H1.105z"/><path fill="#fff" fill-rule="evenodd" d="M56.43 9.275c-1.808-1.236-4.068-1.873-6.705-1.873H44v18.125h5.725c2.637 0 4.897-.674 6.705-1.985.98-.711 1.77-1.685 2.298-2.92.527-1.236.828-2.66.828-4.27s-.263-3.033-.828-4.231c-.528-1.236-1.28-2.21-2.298-2.846m-9.037 1.162h1.77c1.997 0 3.654.375 4.897 1.161 1.394.824 2.11 2.435 2.11 4.719 0 2.359-.716 4.007-2.11 4.905-1.205.787-2.825 1.199-4.859 1.199h-1.808z" clip-rule="evenodd"/><path fill="#fff" d="M62.193 7.702c.376-.374.828-.561 1.393-.561.528 0 1.017.224 1.431.561.377.375.566.824.566 1.386s-.189 1.048-.566 1.423c-.414.374-.866.562-1.43.562-.566 0-1.056-.188-1.432-.562-.377-.412-.565-.861-.565-1.423s.226-1.011.602-1.386M61.93 12.719h3.239v12.77h-3.24z"/><path fill="#fff" fill-rule="evenodd" d="M73.64 12.457c1.167 0 2.26.487 3.24 1.348V12.72h3.163v11.609c0 1.91-.603 3.483-1.733 4.643-1.13 1.161-2.674 1.76-4.595 1.76-1.394 0-2.637-.337-3.578-.936q-1.413-.899-2.147-1.91l-.076-.075 2.185-2.097c1.168 1.498 2.072 2.098 3.578 2.098.942 0 1.733-.3 2.298-.862.527-.562.829-1.385.829-2.434v-.3c-.904.675-1.959 1.012-3.202 1.012-1.77 0-3.277-.6-4.407-1.798-1.13-1.236-1.695-2.771-1.695-4.568 0-1.835.565-3.37 1.733-4.569 1.13-1.236 2.636-1.835 4.407-1.835m.15 9.812c.942 0 1.658-.3 2.223-.936s.866-1.46.829-2.509c0-1.011-.264-1.872-.829-2.509s-1.28-.936-2.222-.936c-.904 0-1.62.3-2.185.936s-.829 1.46-.829 2.51c0 1.048.264 1.871.829 2.508.527.637 1.243.936 2.185.936" clip-rule="evenodd"/><path fill="#fff" d="M82.797 12.719h3.24v12.77h-3.24zM83.06 7.702c.376-.374.828-.561 1.393-.561s1.017.224 1.432.561c.376.375.565.824.565 1.386s-.189 1.048-.565 1.423c-.415.374-.867.562-1.432.562s-1.054-.188-1.431-.562c-.377-.412-.565-.861-.565-1.423s.226-1.011.603-1.386M93.115 9.273h-3.164v3.446h-1.845v2.92h1.845v5.28c0 1.648.34 2.847.98 3.52.678.675 1.845 1.05 3.465 1.05.527 0 1.055 0 1.582-.038h.15V22.53l-1.092.075c-.753 0-1.28-.15-1.544-.412s-.377-.824-.377-1.685v-4.831h3.014v-2.92h-3.014zM114.513 7.363h-3.24v18.125h3.24zM147.093 20.92c-.565.637-1.167 1.198-1.619 1.498s-1.017.412-1.658.412c-.941 0-1.733-.337-2.335-1.049-.603-.711-.942-1.61-.942-2.696q0-1.63.904-2.696c.603-.711 1.394-1.048 2.336-1.048 1.054 0 2.147.636 3.088 1.76l2.147-2.023c-1.393-1.797-3.164-2.621-5.273-2.621-1.77 0-3.315.637-4.558 1.91s-1.883 2.846-1.883 4.756.64 3.52 1.883 4.755c1.243 1.274 2.788 1.91 4.558 1.91 2.335 0 4.219-1.01 5.499-2.846z"/><path fill="#fff" fill-rule="evenodd" d="M158.507 12.984c.753.374 1.394.898 1.846 1.535s.791 1.31 1.092 2.097q.339 1.123.339 2.36l-.038 1.16h-8.55c.075.824.377 1.46.904 1.947.565.525 1.281.787 2.185.787.602 0 1.13-.15 1.619-.375.339-.15.641-.374.942-.674.113-.13.245-.262.372-.388s.25-.248.344-.36l2.109 2.021-.075.075q-2.035 2.584-5.311 2.584c-1.921 0-3.503-.636-4.671-1.835-1.168-1.235-1.77-2.808-1.77-4.756 0-1.872.527-3.482 1.619-4.793 1.093-1.273 2.562-1.947 4.37-1.947 1.017 0 1.921.187 2.674.562m-4.37 3.031a3.24 3.24 0 0 0-.828 1.498v.038h4.972a2.37 2.37 0 0 0-.641-1.498q-.621-.675-1.808-.674c-.678 0-1.243.225-1.695.636M172.747 13.693c-.979-.824-2.335-1.236-4.03-1.236-1.092 0-2.072.225-2.976.674a5.2 5.2 0 0 0-2.184 2.06l.037.037 2.072 1.985c.866-1.348 1.808-1.835 3.051-1.835.678 0 1.243.187 1.657.524.415.337.641.787.641 1.386v.636c-.791-.224-1.582-.374-2.373-.374-1.62 0-2.901.374-3.88 1.123-.979.75-1.469 1.835-1.469 3.183 0 1.199.414 2.172 1.243 2.884s1.883 1.048 3.126 1.048 2.373-.486 3.428-1.348v1.049h3.164v-8.201c-.038-1.573-.527-2.771-1.507-3.595m-5.727 6.928c.376-.263.866-.375 1.544-.375.791 0 1.62.15 2.448.45v1.235c-.715.637-1.657.974-2.787.974-.565 0-.979-.113-1.281-.375-.301-.224-.452-.524-.452-.936s.151-.749.528-.973" clip-rule="evenodd"/><path fill="#fff" d="M182.878 12.418c1.619 0 2.862.487 3.766 1.498Q188 15.43 188 18.073v7.377h-3.239v-7.377c0-.862-.188-1.536-.603-2.023-.414-.486-.979-.711-1.695-.711-.828 0-1.469.262-1.921.824s-.678 1.31-.678 2.284v7.04h-3.239v-12.77h3.164v.787c.753-.712 1.808-1.086 3.089-1.086"/><path fill="#fff" fill-rule="evenodd" d="M107.208 13.693c-.979-.824-2.335-1.236-4.03-1.236-1.092 0-2.072.225-2.976.674a5.2 5.2 0 0 0-2.184 2.06l.037.037 2.072 1.985c.866-1.348 1.808-1.835 3.051-1.835.678 0 1.243.187 1.657.524.415.337.641.787.641 1.386v.636c-.791-.224-1.582-.374-2.373-.374-1.62 0-2.901.374-3.88 1.123-.98.75-1.47 1.835-1.47 3.183 0 1.199.415 2.172 1.244 2.884s1.883 1.048 3.126 1.048 2.373-.486 3.428-1.348v1.049h3.164v-8.201c-.038-1.573-.527-2.771-1.507-3.595m-5.728 6.928c.377-.263.867-.375 1.545-.375.791 0 1.619.15 2.448.45v1.235c-.716.637-1.657.974-2.787.974-.565 0-.98-.113-1.281-.375-.301-.224-.452-.524-.452-.936s.151-.749.527-.973M116.81 16.426c0 5.13 4.218 9.324 9.379 9.324 5.198 0 9.379-4.194 9.379-9.324s-4.219-9.324-9.379-9.324c-5.161 0-9.379 4.194-9.379 9.324m3.312-.038c0-3.332 2.712-6.029 6.064-6.029 3.353 0 6.065 2.697 6.065 6.03 0 3.332-2.712 6.029-6.065 6.029-3.352 0-6.064-2.697-6.064-6.03" clip-rule="evenodd"/></svg>
